lib/radiotmp/nrk-hardware-computer-expressive.svg

<svg width="24" height="24" viewBox="0 0 24 24" fill="none" xmlns="http://www.w3.org/2000/svg">
<path fill-rule="evenodd" clip-rule="evenodd" d="M22.0049 5C22.0049 3.34315 20.6618 2 19.0049 2H4.99599C3.33879 2 1.99551 3.34367 1.99598 5.00087L1.99916 16.0059C1.99964 17.6627 3.34318 19.0055 5.00005 19.005L19.0058 19.0009C20.6623 19.0004 22.0049 17.6574 22.0049 16.0009V5ZM5.00003 14.0059C4.44774 14.0059 4.00003 13.5582 4.00003 13.0059V4.99443C4.00003 4.442 4.44797 3.99423 5.0004 3.99443L19.0048 3.99963C19.5571 3.99983 20.0047 4.44779 20.0044 5.00012L20.0005 13.0064C20.0002 13.5585 19.5526 14.0059 19.0005 14.0059H5.00003ZM10 23C9.44774 23 9.00003 22.5523 9.00003 22C9.00003 21.4477 9.44774 21 10 21H14C14.5523 21 15 21.4477 15 22C15 22.5523 14.5523 23 14 23H10ZM13 16C13 16.5523 12.5523 17 12 17C11.4477 17 11 16.5523 11 16C11 15.4477 11.4477 15 12 15C12.5523 15 13 15.4477 13 16Z" fill="black"/>
</svg>

<svg xmlns="http://www.w3.org/2000/svg" viewBox="0 0 24 24"><path fill="#000" fill-rule="evenodd" d="M22.005 5a3 3 0 0 0-3-3H4.996a3 3 0 0 0-3 3l.003 11.006A3 3 0 0 0 5 19.005l14.006-.004a3 3 0 0 0 2.999-3V5ZM5 14.006a1 1 0 0 1-1-1V4.994a1 1 0 0 1 1-1L19.005 4a1 1 0 0 1 1 1L20 13.006a1 1 0 0 1-1 1H5ZM10 23a1 1 0 0 1 0-2h4a1 1 0 1 1 0 2h-4Zm3-7a1 1 0 1 1-2 0 1 1 0 0 1 2 0Z" clip-rule="evenodd"/></svg>
